X: 55
T:Jenny Lind - Upton on Severn
N:Tune as played for Grand Union Morris
N:www.grandunionmorris.co.uk
M:4/4
L:1/8
Q:150
K:G
"A" g2 f2 ef e2 | d2 B2 Bc B2 | c2 A2 AG A2 | B2 G2 G4 |g2 f2 ef e2 | d2
 B2 Bc B2 | c2 A2 F2 AF | G2 G2 G4 ||
K:D
"B" F2 AF G2 BG|A2 f2 fe f2|G2 e2 ef e2|F2 d2 dc d2|F2 AF G2 BG|A2 f2 fe
 f2|
g2 e2 c2 ec|d2 d2 d4||
% Output from ABC2Win  Version 2.1 i on 14-12-99
